dist/svg/shield-check-duo-tone.svg

<svg xmlns="http://www.w3.org/2000/svg" viewBox="0 0 24 24"><path d="M11.445 2.462c-.292.063-5.741 2.226-6.225 2.471-.553.28-1.081.88-1.298 1.478-.164.453-.169.551-.152 3.169.017 2.781.021 2.833.291 3.886.351 1.371 1.056 2.758 2.026 3.983.445.563 1.627 1.735 2.233 2.215 1.033.818 2.262 1.57 2.94 1.798.453.152.986.152 1.437.001 1.102-.372 3.271-1.935 4.454-3.212 1.693-1.826 2.563-3.481 2.976-5.66.08-.424.086-.605.102-2.991.019-2.661.014-2.752-.159-3.2-.239-.621-.736-1.187-1.29-1.467-.514-.26-5.937-2.408-6.243-2.473a2.8 2.8 0 0 0-1.092.002m3.728 2.623c1.939.776 2.97 1.208 3.08 1.292.204.155.365.386.434.623.076.258.074 4.463-.002 4.98-.255 1.74-.859 3.091-2.042 4.57-.806 1.007-2.094 2.127-3.331 2.896-.954.592-1.244.701-1.577.593-.428-.138-1.744-.965-2.515-1.581-.578-.461-1.601-1.491-2.006-2.018-1.07-1.394-1.638-2.702-1.883-4.336-.089-.594-.104-4.811-.018-5.104.066-.227.223-.457.419-.615.104-.083 1.07-.489 3.08-1.293 2.781-1.113 2.941-1.172 3.187-1.172s.404.058 3.174 1.165m.527 3.232c-.107.05-.819.735-2.16 2.079-1.1 1.102-2.018 2.004-2.04 2.004s-.49-.452-1.04-1.004c-.637-.639-1.058-1.032-1.16-1.079a.67.67 0 0 0-.6-.001c-.393.181-.559.609-.383.984.092.197 2.729 2.836 2.896 2.898.144.054.43.054.574 0 .168-.062 4.803-4.699 4.896-4.898a.67.67 0 0 0 .001-.6c-.181-.393-.609-.559-.984-.383"/></svg>

<svg fill="none" xmlns="http://www.w3.org/2000/svg" viewBox="0 0 24 24"><path d="M11.445 2.462 C 11.153 2.525,5.704 4.688,5.220 4.933 C 4.667 5.213,4.139 5.813,3.922 6.411 C 3.758 6.864,3.753 6.962,3.770 9.580 C 3.787 12.361,3.791 12.413,4.061 13.466 C 4.412 14.837,5.117 16.224,6.087 17.449 C 6.532 18.012,7.714 19.184,8.320 19.664 C 9.353 20.482,10.582 21.234,11.260 21.462 C 11.713 21.614,12.246 21.614,12.697 21.463 C 13.799 21.091,15.968 19.528,17.151 18.251 C 18.844 16.425,19.714 14.770,20.127 12.591 C 20.207 12.167,20.213 11.986,20.229 9.600 C 20.248 6.939,20.243 6.848,20.070 6.400 C 19.831 5.779,19.334 5.213,18.780 4.933 C 18.266 4.673,12.843 2.525,12.537 2.460 C 12.196 2.388,11.782 2.388,11.445 2.462 M15.173 5.085 C 17.112 5.861,18.143 6.293,18.253 6.377 C 18.457 6.532,18.618 6.763,18.687 7.000 C 18.763 7.258,18.761 11.463,18.685 11.980 C 18.430 13.720,17.826 15.071,16.643 16.550 C 15.837 17.557,14.549 18.677,13.312 19.446 C 12.358 20.038,12.068 20.147,11.735 20.039 C 11.307 19.901,9.991 19.074,9.220 18.458 C 8.642 17.997,7.619 16.967,7.214 16.440 C 6.144 15.046,5.576 13.738,5.331 12.104 C 5.242 11.510,5.227 7.293,5.313 7.000 C 5.379 6.773,5.536 6.543,5.732 6.385 C 5.836 6.302,6.802 5.896,8.812 5.092 C 11.593 3.979,11.753 3.920,11.999 3.920 C 12.245 3.920,12.403 3.978,15.173 5.085 M15.700 8.317 C 15.593 8.367,14.881 9.052,13.540 10.396 C 12.440 11.498,11.522 12.400,11.500 12.400 C 11.478 12.400,11.010 11.948,10.460 11.396 C 9.823 10.757,9.402 10.364,9.300 10.317 C 9.098 10.222,8.904 10.222,8.700 10.316 C 8.307 10.497,8.141 10.925,8.317 11.300 C 8.409 11.497,11.046 14.136,11.213 14.198 C 11.357 14.252,11.643 14.252,11.787 14.198 C 11.955 14.136,16.590 9.499,16.683 9.300 C 16.778 9.098,16.779 8.904,16.684 8.700 C 16.503 8.307,16.075 8.141,15.700 8.317 " stroke="none" fill-rule="evenodd"/></svg>
